X: 0764
T: McFARLANE'S STRATHSPEY
B: Oliver Ditson "The Boston Collection of Instrumental Music" 1910 p.76 #4
F: http://conquest.imslp.info/files/imglnks/usimg/8/8f/IMSLP175643-PMLP309456-bostoncollection00bost_bw.pdf
%: 2012 John Chambers <jc:trillian.mit.edu>
M: 4/4
L: 1/8
K: D
f |\
dATA2 F<DTD2 | f>ae>g dBTe2 |\
d<ATA3 F<D D>g | f>ae>g d/d/d d :|
f |\
a>baf Te>def | d>AB>F {c}dFE2 |\
a>baf Te>def | d>AA>B d>ed>f |
Ta>baf Te>def | d>AB>F dFE>F |\
D>FE>G FA A>g | f>ae>f d/d/dd2 |]

%%sep 1 1 500
%%sep 1 1 500
